!! 00046] TT[KA
!! NN
!!!OTL: Zhai youcha
!!!ARE: Asia, China,ÿJiangxi, Jingdezhen
!! Ethnic Group: Han
!! IV, 210, 2)
!!!SCT: C0403
!!!YEM: Copyright 1995, estate of Helmut Schaffrath.
**kern
*ICvox
*Ivox
*M2/4
*k[f#c#g#]
*A:
{8b
8cc#
16b
16cc#
8a
=1
2b
=2
8cc#
16b
16cc#
16b
16a
8f#
=3
8b
4.a}
=4
{8b
8cc#
16b
16cc#
16a
16b
=5
2f#
=6
8a
8b
16b
16a
8f#
=7
16e
16f#
4.e}
=8
{8b
8b
8ee
8ee
=9
16ff#
16ee
4.cc#
=10
8b
4.ee
=11
8f#
16a
[16f#
4f#]}
=12
{8cc#
16b
16cc#
16b
16a
8f#
=13
8e
4.f#
=14
4e
4f#
=15
16e
16f#
4.e}
==
!!!AGN: Shange. Zhai youcha qingjing
!! Aehnlich wie in Jiangsu und Zhejiang; enthaelt aber groessere
!!    Spruenge.
!!    Vereinzelt Verzierungen.
!!!ONB: ESAC (Essen Associative Code) Database: CHINA
!!!AMT: simple duple
!!!AIN: vox
!!!EED: Helmut Schaffrath
!!!EEV: 1.0
*-
